packages/foundations/assets/icons/functional/images/transportation/ship_32.svg

<svg width="32" height="32" viewBox="0 0 32 32" fill="none" xmlns="http://www.w3.org/2000/svg">
<g clip-path="url(#clip0_2214_7243)">
<path fill-rule="evenodd" clip-rule="evenodd" d="M7.00258 24.8414C7.33962 25.3098 8.07669 26.4945 9.5 26.5009C10.994 26.5076 11.5737 25.3627 11.9739 24.8703C12.3741 24.3778 13.1258 24.3777 13.526 24.8702C13.9262 25.3626 14.4933 26.5009 15.9986 26.5009C17.5039 26.5008 18.1006 25.3295 18.474 24.8701C18.8474 24.4108 19.5267 24.38 19.9411 24.7779C20.3555 25.1758 21.0003 26.5094 22.4925 26.5009C23.9847 26.4923 24.6005 25.3296 24.974 24.8701C25.3475 24.4106 26.0272 24.38 26.4415 24.7782C26.8558 25.1765 28.0534 26.4902 28.9981 26.5009C29.5916 26.5076 30 26.9486 30 27.5009C30 28.0137 29.5658 28.5009 29 28.5009C27.9908 28.5009 26.9075 27.9815 25.75 26.9428C24.6799 27.9757 23.5941 28.4923 22.4925 28.4926C21.3909 28.4929 20.3101 27.976 19.25 26.9418C18.149 27.9757 17.0656 28.4953 16 28.5009C14.9344 28.5064 13.851 27.987 12.75 26.9428C11.6167 27.9815 10.5336 28.5009 9.50063 28.5009C8.46764 28.5009 7.3841 27.9819 6.25 26.9438C5.14302 27.9764 4.05969 28.4954 3 28.5009C2.44808 28.5037 2 28.0532 2 27.5009C2 26.988 2.38604 26.5654 2.88338 26.5076C4.18024 26.3699 5.05409 25.3688 5.4734 24.8709C5.89272 24.373 6.66554 24.373 7.00258 24.8414ZM17.5131 3.50081C18.774 3.50081 19.9874 4.31484 20.3859 5.63663C21.1762 8.25767 21.9645 10.8791 22.751 13.5008H28.0001C28.5667 13.5008 29.0202 13.9712 28.9994 14.5375C28.8743 17.9458 27.2806 21.1333 24.6289 23.2783C24.1995 23.6257 23.5699 23.5592 23.2225 23.1298C22.8752 22.7004 22.9417 22.0708 23.3711 21.7234C25.247 20.2059 26.3649 18.3469 26.906 15.5008H3.99994C3.4871 15.5008 2.99994 15.0764 2.99994 14.5008C2.99994 13.9252 3.41874 13.501 3.99994 13.5008C9.55418 13.4986 15.1085 13.4986 20.663 13.5008L19.76 10.5008H6C5.44772 10.5008 5 10.0531 5 9.50081C5 8.98798 5.38604 8.56531 5.88338 8.50754L6 8.50081H19.159L18.4707 6.21275C18.3551 5.82855 18.001 5.50081 17.5131 5.50081H3.99994C3.44766 5.50081 2.99994 5.0531 2.99994 4.50081C2.99994 3.98798 3.41292 3.5011 3.99994 3.50081C8.50422 3.49859 13.0086 3.49859 17.5131 3.50081ZM15.5 17.5008C16.3284 17.5008 17 18.1724 17 19.0008C17 19.8292 16.3284 20.5008 15.5 20.5008C14.6716 20.5008 14 19.8292 14 19.0008C14 18.1724 14.6716 17.5008 15.5 17.5008ZM20.5 17.5008C21.3284 17.5008 22 18.1724 22 19.0008C22 19.8292 21.3284 20.5008 20.5 20.5008C19.6716 20.5008 19 19.8292 19 19.0008C19 18.1724 19.6716 17.5008 20.5 17.5008ZM10.5 17.5008C11.3284 17.5008 12 18.1724 12 19.0008C12 19.8292 11.3284 20.5008 10.5 20.5008C9.67157 20.5008 9 19.8292 9 19.0008C9 18.1724 9.67157 17.5008 10.5 17.5008ZM5.5 17.5008C6.32843 17.5008 7 18.1724 7 19.0008C7 19.8292 6.32843 20.5008 5.5 20.5008C4.67157 20.5008 4 19.8292 4 19.0008C4 18.1724 4.67157 17.5008 5.5 17.5008Z" fill="#1A1C1F"/>
</g>
<defs>
<clipPath id="clip0_2214_7243">
<rect width="32" height="32" fill="white"/>
</clipPath>
</defs>
</svg>

<svg xmlns="http://www.w3.org/2000/svg" width="32" height="32" fill="none"><g clip-path="url(#a)"><path fill="#1A1C1F" fill-rule="evenodd" d="M7.003 24.841c.337.469 1.074 1.653 2.497 1.66 1.494.007 2.074-1.138 2.474-1.63a1 1 0 0 1 1.552 0c.4.492.967 1.63 2.473 1.63s2.102-1.172 2.475-1.63a1 1 0 0 1 1.467-.093c.415.398 1.06 1.731 2.552 1.723s2.108-1.171 2.481-1.63a1 1 0 0 1 1.468-.093c.414.399 1.611 1.712 2.556 1.723.594.007 1.002.448 1.002 1 0 .513-.434 1-1 1q-1.515 0-3.25-1.558-1.605 1.55-3.258 1.55-1.652 0-3.242-1.551-1.651 1.55-3.25 1.559t-3.25-1.558Q11.05 28.5 9.5 28.5q-1.548 0-3.25-1.557Q4.59 28.492 3 28.5a1 1 0 0 1-.117-1.993c1.297-.138 2.171-1.14 2.59-1.637s1.193-.498 1.53-.03m10.51-21.34c1.261 0 2.474.814 2.873 2.136q1.185 3.93 2.365 7.864h5.25a1 1 0 0 1 .998 1.037 11.8 11.8 0 0 1-4.37 8.74 1 1 0 1 1-1.258-1.555c1.876-1.517 2.994-3.376 3.535-6.222H4c-.513 0-1-.425-1-1 0-.576.419-1 1-1q8.332-.003 16.663 0l-.903-3H6a1 1 0 0 1-.117-1.993L6 8.5h13.159l-.688-2.288a.99.99 0 0 0-.958-.712H4a1 1 0 1 1 0-2q6.757-.003 13.513 0m-2.013 14a1.5 1.5 0 1 1 0 3 1.5 1.5 0 0 1 0-3m5 0a1.5 1.5 0 1 1 0 3 1.5 1.5 0 0 1 0-3m-10 0a1.5 1.5 0 1 1 0 3 1.5 1.5 0 0 1 0-3m-5 0a1.5 1.5 0 1 1 0 3 1.5 1.5 0 0 1 0-3" clip-rule="evenodd"/></g><defs><clipPath id="a"><path fill="#fff" d="M0 0h32v32H0z"/></clipPath></defs></svg>
